hackathon/svg-icons/src/components/icons/source/holographic-city-model.svg

<svg fill="none" height="256" viewBox="0 0 256 256" width="256" xmlns="http://www.w3.org/2000/svg"><g fill="#000"><path d="m231.035 221.398c-.759-.885-1.867-1.396-3.035-1.396h-4v-8c0-1.258-.593-2.444-1.6-3.199l-14.4-10.8v-9.999c-.002-1.168-.513-2.277-1.4-3.035l-28-23.999c-1.186-1.014-2.854-1.246-4.272-.594-1.418.651-2.326 2.069-2.328 3.63v35.997h-8v-15.999c0-1.212-.552-2.36-1.498-3.119-.947-.759-2.186-1.048-3.37-.784l-11.132 2.471v-18.566c0-1.186-.525-2.311-1.436-3.071l-14.564-12.128v-13.535c3.137-1.093 5.677-3.444 7.007-6.488 1.328-3.045 1.328-6.505 0-9.55-1.33-3.044-3.87-5.396-7.007-6.489v-5.771c5.742-1.107 10.716-4.664 13.619-9.7403 3.715 1.9677 7.197 4.3483 10.381 7.0923v23.683h-4c-2.209 0-4 1.791-4 3.999v15.999h8v-11.999h24v11.999h8v-15.999c0-1.06-.422-2.078-1.172-2.828s-1.768-1.171-2.828-1.171h-4v-5.555c-.016-12.846-4.388-25.3035-12.4-35.3422-1.727-2.1623-4.632-2.9962-7.243-2.0802s-4.359 3.3801-4.357 6.1477v3.0355c-2.552-1.7516-5.225-3.3194-8-4.6909v-3.5997c6.53-4.3515 11.455-10.7243 14.019-18.1401.44.0608.881.1036 1.316.1679.193.0357.388.0571.584.0607 1.449.0018 2.784-.7803 3.493-2.0445 6.12-11.1869 6.12-24.7215 0-35.9084-.812-1.4482-2.434-2.2446-4.077-1.9999l-.216.0286v-.0018c-2.412-10.7102-9.582-19.73447-19.469-24.50717-9.888-4.77271-21.413-4.77271-31.3 0-9.888 4.7727-17.0573 13.79747-19.4701 24.50717l-.2161-.0286v.0018c-1.6429-.2446-3.2643.5517-4.0768 1.9999-6.1198 11.1869-6.1198 24.7215 0 35.9084.8125 1.4481 2.4339 2.2445 4.0768 1.9998.4357-.0642.8768-.1071 1.3161-.1678 2.5643 7.4157 7.4891 13.7883 14.0191 18.14v3.5998c-2.774 1.3713-5.448 2.9391-7.9995 4.6909v-3.0355c.0035-2.7677-1.7428-5.2353-4.3553-6.1514-2.6107-.9178-5.5177-.0821-7.2448 2.0802-8.0105 10.035-12.3821 22.4898-12.4 35.3298v5.555h-4c-2.2089 0-4 1.791-4 4v15.998h8v-11.999h24v11.999h7.9996v-15.998c0-1.061-.421-2.079-1.171-2.829s-1.768-1.171-2.829-1.171h-3.9996v-23.683c3.1896-2.746 6.6786-5.1244 10.3996-7.0923 2.9 5.0713 7.865 8.6283 13.6 9.7403v5.771c-3.137 1.093-5.676 3.445-7.007 6.489-1.328 3.045-1.328 6.505 0 9.55 1.331 3.044 3.87 5.396 7.007 6.488v6.861l-1.435-1.2v-.002c-1.484-1.239-3.645-1.239-5.129 0l-24 19.999c-.9107.762-1.4375 1.889-1.4357 3.076v23.782l-8-2.667v-9.116c0-1.06-.4214-2.078-1.1714-2.828s-1.7679-1.171-2.8286-1.171h-23.9999c-2.2089 0-4 1.791-4 3.999v19.999h-12c-2.2089 0-4 1.791-4 4v19.998h-4c-1.0607 0-2.0786.422-2.8285 1.172l-27.99999 27.998c-1.1428587 1.144-1.485716 2.864-.86606 4.359.619656 1.494 2.0768 2.469 3.69462 2.469h247.99953c1.562 0 2.982-.909 3.634-2.328.652-1.42.42-3.09-.598-4.275zm-67.035-125.6416c5.207 7.9316 7.988 17.2096 8 26.6986v5.554h-8zm-79.9998 32.2536v-5.555c.0125-9.489 2.7929-18.767 8-26.6981v32.2531zm63.5518-111.9926h-13.896l-2.829-2.8284h.002c-1.562-1.5606-4.094-1.5606-5.657 0l-2.827 2.8284h-13.896c5.216-5.1265 12.238-7.99949 19.552-7.99949s14.336 2.87299 19.552 7.99949zm-44.832 7.9994h21.281c1.06 0 2.078-.4214 2.828-1.1713l1.172-1.1732 1.171 1.1714v.0018c.75.7499 1.768 1.1713 2.829 1.1713h21.28c.78 1.6374 1.398 3.348 1.843 5.1069-18.023 2.0481-36.223 2.0481-54.245 0 .445-1.7588 1.063-3.4694 1.843-5.1069zm-8.3518 12.3672c22.3178 3.048 44.9458 3.048 67.2638 0 3.188 7.4262 3.188 15.8366 0 23.2629-22.318-3.0498-44.946-3.0498-67.2638 0-3.1875-7.4263-3.1875-15.8367 0-23.2629zm7.8228 30.3979h.002c17.15-1.8499 34.448-1.8499 51.602 0-2.835 6.8407-8.273 12.2758-15.114 15.1099-6.843 2.8337-14.53 2.8337-21.373 0-6.841-2.8338-12.278-8.2692-15.113-15.1099zm15.08 26.4179-1.271-2.2481v-.9999c7.764 2.7462 16.236 2.7462 24 0v.9999l-1.271 2.2284c-1.449 2.5338-3.745 4.473-6.486 5.4749-2.74 1.0017-5.747 1.0017-8.486 0-2.741-1.0017-5.037-2.9409-6.486-5.4749zm10.729 26.8102c1.618 0 3.077.975 3.695 2.47.619 1.494.278 3.214-.866 4.358-1.145 1.145-2.865 1.486-4.359.866-1.495-.617-2.47-2.076-2.47-3.694 0-2.209 1.791-4 4-4zm-114.3448 127.992 20-19.999h2.3446v8h8v-31.998h16v31.998h8v-35.998c0-1.061-.4215-2.079-1.1715-2.828-.75-.75-1.7678-1.172-2.8285-1.172h-4v-15.999h16v55.997h7.9999v-42.446l16 5.332v37.114h8.0003v-39.998c0-1.723-1.102-3.251-2.736-3.796l-5.2645-1.755v-24.575l19.9995-16.671 20 16.663v18.476l-16.867 3.748v-.002c-1.832.407-3.136 2.035-3.132 3.912v43.997h8v-40.797l28-6.219v47.019h8v-27.999h24v27.999h8v-31.998c0-1.061-.422-2.079-1.172-2.829s-1.768-1.171-2.828-1.171h-12v-27.302l20 17.144v46.154h7.999v-27.998l8 6v21.998h8v-7.999h2.161l17.145 19.998z"/><path d="m62.6336 131.356-4.3679-6.699c-17.909 11.599-32.6248 27.502-42.8035 46.25-10.17694 18.753-15.4930445 39.757-15.46058742 61.093h7.99998742c-.02858-20.004 4.9554-39.697 14.5001-57.276 9.5428-17.582 23.3412-32.492 40.132-43.366z"/><path d="m248 232.003h8c.025-21.241-5.247-42.154-15.34-60.846s-24.689-34.571-42.464-46.2l-4.4 6.687c16.666 10.903 30.352 25.789 39.816 43.313 9.464 17.522 14.409 37.13 14.388 57.043z"/></g></svg>

<svg xmlns="http://www.w3.org/2000/svg" width="256" height="256" fill="none" viewBox="0 0 256 256"><path fill="#000" d="M231.035 221.398C230.276 220.513 229.168 220.002 228 220.002H224V212.002C224 210.744 223.407 209.558 222.4 208.803L208 198.003V188.004C207.998 186.836 207.487 185.727 206.6 184.969L178.6 160.97C177.414 159.956 175.746 159.724 174.328 160.376C172.91 161.027 172.002 162.445 172 164.006V200.003H164V184.004C164 182.792 163.448 181.644 162.502 180.885C161.555 180.126 160.316 179.837 159.132 180.101L148 182.572V164.006C148 162.82 147.475 161.695 146.564 160.935L132 148.807V135.272C135.137 134.179 137.677 131.828 139.007 128.784C140.335 125.739 140.335 122.279 139.007 119.234C137.677 116.19 135.137 113.838 132 112.745V106.974C137.742 105.867 142.716 102.31 145.619 97.2337C149.334 99.2014 152.816 101.582 156 104.326V128.009H152C149.791 128.009 148 129.8 148 132.008V148.007H156V136.008H180V148.007H188V132.008C188 130.948 187.578 129.93 186.828 129.18C186.078 128.43 185.06 128.009 184 128.009H180V122.454C179.984 109.608 175.612 97.1505 167.6 87.1118C165.873 84.9495 162.968 84.1156 160.357 85.0316C157.746 85.9476 155.998 88.4117 156 91.1793V94.2148C153.448 92.4632 150.775 90.8954 148 89.5239V85.9242C154.53 81.5727 159.455 75.1999 162.019 67.7841C162.459 67.8449 162.9 67.8877 163.335 67.952C163.528 67.9877 163.723 68.0091 163.919 68.0127C165.368 68.0145 166.703 67.2324 167.412 65.9682C173.532 54.7813 173.532 41.2467 167.412 30.0598C166.6 28.6116 164.978 27.8152 163.335 28.0599L163.119 28.0885V28.0867C160.707 17.3765 153.537 8.35223 143.65 3.57953C133.762 -1.19318 122.237 -1.19318 112.35 3.57953C102.462 8.35223 95.2927 17.377 92.8799 28.0867L92.6638 28.0581V28.0599C91.0209 27.8153 89.3995 28.6116 88.587 30.0598C82.4672 41.2467 82.4672 54.7813 88.587 65.9682C89.3995 67.4163 91.0209 68.2127 92.6638 67.968C93.0995 67.9038 93.5406 67.8609 93.9799 67.8002C96.5442 75.2159 101.469 81.5885 107.999 85.9402V89.54C105.225 90.9113 102.551 92.4791 99.9995 94.2309V91.1954C100.003 88.4277 98.2567 85.9601 95.6442 85.044C93.0335 84.1262 90.1265 84.9619 88.3994 87.1242C80.3889 97.1592 76.0173 109.614 75.9994 122.454V128.009H71.9994C69.7905 128.009 67.9994 129.8 67.9994 132.009V148.007H75.9994V136.008H99.9994V148.007H107.999V132.009C107.999 130.948 107.578 129.93 106.828 129.18C106.078 128.43 105.06 128.009 103.999 128.009H99.9994V104.326C103.189 101.58 106.678 99.2016 110.399 97.2337C113.299 102.305 118.264 105.862 123.999 106.974V112.745C120.862 113.838 118.323 116.19 116.992 119.234C115.664 122.279 115.664 125.739 116.992 128.784C118.323 131.828 120.862 134.18 123.999 135.272V142.133L122.564 140.933V140.931C121.08 139.692 118.919 139.692 117.435 140.931L93.435 160.93C92.5243 161.692 91.9975 162.819 91.9993 164.006V187.788L83.9993 185.121V176.005C83.9993 174.945 83.5779 173.927 82.8279 173.177C82.0779 172.427 81.06 172.006 79.9993 172.006H55.9994C53.7905 172.006 51.9994 173.797 51.9994 176.005V196.004H39.9994C37.7905 196.004 35.9994 197.795 35.9994 200.004V220.002H31.9994C30.9387 220.002 29.9208 220.424 29.1709 221.174L1.17091 249.172C0.0280513 250.316 -0.314806 252.036 0.30485 253.531C0.924506 255.025 2.38165 256 3.99947 256H251.999C253.561 256 254.981 255.091 255.633 253.672C256.285 252.252 256.053 250.582 255.035 249.397L231.035 221.398ZM164 95.7564C169.207 103.688 171.988 112.966 172 122.455V128.009H164V95.7564ZM84.0002 128.01V122.455C84.0127 112.966 86.7931 103.688 92.0002 95.7569V128.01L84.0002 128.01ZM147.552 16.0174H133.656L130.827 13.189H130.829C129.267 11.6284 126.735 11.6284 125.172 13.189L122.345 16.0174H108.449C113.665 10.8909 120.687 8.01791 128.001 8.01791C135.315 8.01791 142.337 10.8909 147.553 16.0174H147.552ZM102.72 24.0168H124.001C125.061 24.0168 126.079 23.5954 126.829 22.8455L128.001 21.6723L129.172 22.8437V22.8455C129.922 23.5954 130.94 24.0168 132.001 24.0168H153.281C154.061 25.6542 154.679 27.3648 155.124 29.1237C137.101 31.1718 118.901 31.1718 100.879 29.1237C101.324 27.3649 101.942 25.6543 102.722 24.0168L102.72 24.0168ZM94.3682 36.384C116.686 39.432 139.314 39.432 161.632 36.384C164.82 43.8102 164.82 52.2206 161.632 59.6469C139.314 56.5971 116.686 56.5971 94.3682 59.6469C91.1807 52.2206 91.1807 43.8102 94.3682 36.384ZM102.191 66.7819H102.193C119.343 64.932 136.641 64.932 153.795 66.7819C150.96 73.6226 145.522 79.0577 138.681 81.8918C131.838 84.7255 124.151 84.7255 117.308 81.8918C110.467 79.058 105.03 73.6226 102.195 66.7819H102.191ZM117.271 93.1998L116 90.9517V89.9518C123.764 92.698 132.236 92.698 140 89.9518V90.9517L138.729 93.1801C137.28 95.7139 134.984 97.6531 132.243 98.655C129.503 99.6567 126.496 99.6567 123.757 98.655C121.016 97.6533 118.72 95.7141 117.271 93.1801L117.271 93.1998ZM128 120.01C129.618 120.01 131.077 120.985 131.695 122.48C132.314 123.974 131.973 125.694 130.829 126.838C129.684 127.983 127.964 128.324 126.47 127.704C124.975 127.087 124 125.628 124 124.01C124 121.801 125.791 120.01 128 120.01ZM13.6552 248.002L33.6552 228.003H35.9998V236.003H43.9998V204.005H59.9998V236.003H67.9998V200.005C67.9998 198.944 67.5783 197.926 66.8283 197.177C66.0783 196.427 65.0605 196.005 63.9998 196.005H59.9998V180.006H75.9998V236.003H83.9997V193.557L99.9997 198.889V236.003H108V196.005C108 194.282 106.898 192.754 105.264 192.209L99.9995 190.454V165.879L119.999 149.208L139.999 165.871V184.347L123.132 188.095V188.093C121.3 188.5 119.996 190.128 120 192.005V236.002H128V195.205L156 188.986V236.005H164V208.006H188V236.005H196V204.007C196 202.946 195.578 201.928 194.828 201.178C194.078 200.428 193.06 200.007 192 200.007H180V172.705L200 189.849V236.003H207.999V208.005L215.999 214.005V236.003H223.999V228.004H226.16L243.305 248.002L13.6552 248.002Z"/><path fill="#000" d="M62.6336 131.356L58.2657 124.657C40.3567 136.256 25.6409 152.159 15.4622 170.907C5.28526 189.66 -0.0308445 210.664 0.00161258 232H8.0016C7.97302 211.996 12.957 192.303 22.5017 174.724C32.0445 157.142 45.8429 142.232 62.6337 131.358L62.6336 131.356Z"/><path fill="#000" d="M248 232.003H256C256.025 210.762 250.753 189.849 240.66 171.157C230.567 152.465 215.971 136.586 198.196 124.957L193.796 131.644C210.462 142.547 224.148 157.433 233.612 174.957C243.076 192.479 248.021 212.087 248 232V232.003Z"/></svg>
